( Generated by Carbide Copper )
( Material Size )
( X= 45.000, Y= 45.000, Z= 1.580 )
()
G17
G21
G54
G90
M05
(  )
T501 M06
( Contour )
M03 S10000
G0  X9.212 Y43.862
G0  Z3.000
G01 F400 Z0
G01 F400 Z-0.100
G01F400X9.144 Y43.848
X9.082 Y43.820
X9.029 Y43.782
X7.970 Y42.723
X7.752 Y42.851
X7.048 Y42.669
X6.679 Y42.042
X6.861 Y41.338
X7.488 Y40.969
X8.192 Y41.151
X8.561 Y41.778
X8.436 Y42.263
X9.382 Y43.210
X41.418 Y43.210
X41.583 Y43.045
X41.583 Y42.732
X41.338 Y42.669
X40.969 Y42.042
X41.151 Y41.338
X41.583 Y41.084
X41.583 Y36.977
X40.896 Y37.381
X39.533 Y37.029
X38.819 Y35.816
X39.151 Y34.533
X36.694 Y32.076
X31.056 Y32.076
X30.988 Y32.062
X30.960 Y32.049
X29.491 Y32.049
X29.491 Y30.151
X31.389 Y30.151
X31.389 Y31.424
X36.864 Y31.424
X36.931 Y31.438
X36.994 Y31.466
X37.047 Y31.504
X39.690 Y34.148
X40.384 Y33.739
X41.747 Y34.091
X42.461 Y35.304
X42.282 Y35.995
X42.853 Y35.425
X42.852 Y23.034
X42.371 Y22.553
X42.207 Y22.627
X41.984 Y22.674
X41.756 Y22.674
X41.533 Y22.627
X41.325 Y22.534
X41.141 Y22.400
X40.988 Y22.231
X40.874 Y22.033
X40.804 Y21.817
X40.780 Y21.590
X40.804 Y21.363
X40.874 Y21.147
X40.988 Y20.949
X41.141 Y20.780
X41.325 Y20.646
X41.533 Y20.553
X41.756 Y20.506
X41.984 Y20.506
X42.207 Y20.553
X42.371 Y20.627
X42.853 Y20.145
X42.853 Y5.215
X41.774 Y4.136
X38.236 Y4.136
X32.494 Y9.878
X32.591 Y10.042
X32.428 Y10.671
X31.868 Y11.001
X31.239 Y10.838
X31.032 Y10.486
X28.666 Y10.486
X28.618 Y10.671
X28.058 Y11.001
X27.429 Y10.838
X27.099 Y10.278
X27.262 Y9.649
X27.822 Y9.319
X28.451 Y9.482
X28.658 Y9.834
X31.024 Y9.834
X31.072 Y9.649
X31.632 Y9.319
X32.026 Y9.421
X37.883 Y3.564
X37.936 Y3.526
X37.999 Y3.498
X38.066 Y3.484
X41.944 Y3.484
X42.011 Y3.498
X42.074 Y3.526
X42.127 Y3.564
X43.406 Y4.844
X43.445 Y4.887
X43.480 Y4.947
X43.501 Y5.012
X43.507 Y5.074
X43.507 Y20.287
X43.501 Y20.348
X43.480 Y20.413
X43.445 Y20.473
X43.406 Y20.517
X42.833 Y21.090
X42.866 Y21.147
X42.936 Y21.363
X42.960 Y21.590
X42.936 Y21.817
X42.866 Y22.033
X42.835 Y22.087
X43.314 Y22.563
X43.344 Y22.576
X43.400 Y22.616
X43.445 Y22.667
X43.480 Y22.727
X43.501 Y22.792
X43.507 Y22.854
X43.507 Y35.567
X43.501 Y35.628
X43.480 Y35.693
X43.445 Y35.753
X43.406 Y35.797
X42.237 Y36.965
X42.237 Y41.088
X42.482 Y41.151
X42.851 Y41.778
X42.669 Y42.482
X42.237 Y42.736
X42.237 Y43.187
X42.231 Y43.248
X42.210 Y43.313
X42.175 Y43.373
X42.136 Y43.416
X41.771 Y43.782
X41.718 Y43.820
X41.656 Y43.848
X41.589 Y43.862
X9.212 Y43.862
G0 Z3.000
G0  X2.672 Y42.851
G0  Z3.000
G01 F400 Z0
G01 F400 Z-0.100
G01F400X1.968 Y42.669
X1.599 Y42.042
X1.724 Y41.557
X1.044 Y40.876
X1.005 Y40.833
X0.970 Y40.773
X0.949 Y40.708
X0.943 Y40.647
X0.943 Y24.123
X0.949 Y24.062
X0.970 Y23.997
X1.005 Y23.937
X1.044 Y23.893
X1.694 Y23.244
X1.549 Y22.999
X1.741 Y22.258
X2.401 Y21.869
X3.142 Y22.061
X3.531 Y22.721
X3.339 Y23.462
X2.679 Y23.851
X2.149 Y23.713
X1.597 Y24.265
X1.597 Y40.505
X2.190 Y41.097
X2.213 Y41.084
X2.213 Y40.253
X2.219 Y40.191
X2.240 Y40.126
X2.275 Y40.066
X2.314 Y40.023
X3.231 Y39.106
X2.989 Y38.998
X2.739 Y38.817
X2.532 Y38.587
X2.378 Y38.320
X2.282 Y38.026
X2.250 Y37.719
X2.282 Y37.412
X2.378 Y37.118
X2.532 Y36.851
X2.739 Y36.621
X2.989 Y36.440
X3.271 Y36.314
X3.573 Y36.250
X6.587 Y36.250
X6.889 Y36.314
X7.171 Y36.440
X7.421 Y36.621
X7.628 Y36.851
X7.782 Y37.118
X7.878 Y37.412
X7.910 Y37.719
X7.878 Y38.026
X7.782 Y38.320
X7.628 Y38.587
X7.421 Y38.817
X7.171 Y38.998
X6.889 Y39.124
X6.587 Y39.188
X4.073 Y39.188
X2.867 Y40.394
X2.867 Y41.088
X3.112 Y41.151
X3.481 Y41.778
X3.299 Y42.482
X2.672 Y42.851
G0 Z3.000
G0  X36.962 Y42.851
G0  Z3.000
G01 F400 Z0
G01 F400 Z-0.100
G01F400X36.258 Y42.669
X36.003 Y42.236
X29.176 Y42.236
X29.109 Y42.222
X29.046 Y42.194
X28.993 Y42.156
X27.714 Y40.877
X27.675 Y40.833
X27.640 Y40.773
X27.619 Y40.708
X27.613 Y40.647
X27.613 Y33.346
X16.476 Y33.346
X16.409 Y33.332
X16.346 Y33.304
X16.293 Y33.266
X15.062 Y32.034
X14.622 Y31.920
X14.223 Y31.243
X14.420 Y30.482
X15.097 Y30.083
X15.858 Y30.280
X16.257 Y30.957
X16.060 Y31.718
X15.815 Y31.863
X16.646 Y32.694
X27.613 Y32.694
X27.613 Y31.996
X27.322 Y31.920
X26.923 Y31.243
X27.120 Y30.482
X27.797 Y30.083
X28.558 Y30.280
X28.957 Y30.957
X28.760 Y31.718
X28.267 Y32.009
X28.267 Y40.505
X29.346 Y41.584
X36.007 Y41.584
X36.071 Y41.338
X36.698 Y40.969
X37.402 Y41.151
X37.771 Y41.778
X37.589 Y42.482
X36.962 Y42.851
G0 Z3.000
G0  X23.264 Y39.774
G0  Z3.000
G01 F400 Z0
G01 F400 Z-0.100
G01F400X22.920 Y39.700
X22.599 Y39.557
X22.314 Y39.351
X22.079 Y39.089
X21.903 Y38.784
X21.794 Y38.450
X21.757 Y38.100
X21.794 Y37.750
X21.903 Y37.416
X22.079 Y37.111
X22.314 Y36.849
X22.599 Y36.643
X22.920 Y36.500
X23.264 Y36.426
X23.616 Y36.426
X23.960 Y36.500
X24.281 Y36.643
X24.566 Y36.849
X24.801 Y37.111
X24.977 Y37.416
X25.086 Y37.750
X25.123 Y38.100
X25.086 Y38.450
X24.977 Y38.784
X24.801 Y39.089
X24.566 Y39.351
X24.281 Y39.557
X23.960 Y39.700
X23.616 Y39.774
X23.264 Y39.774
G0 Z3.000
G0  X32.264 Y39.774
G0  Z3.000
G01 F400 Z0
G01 F400 Z-0.100
G01F400X31.920 Y39.700
X31.599 Y39.557
X31.314 Y39.351
X31.079 Y39.089
X30.903 Y38.784
X30.794 Y38.450
X30.757 Y38.100
X30.794 Y37.750
X30.903 Y37.416
X31.079 Y37.111
X31.314 Y36.849
X31.599 Y36.643
X31.920 Y36.500
X32.264 Y36.426
X32.616 Y36.426
X32.960 Y36.500
X33.281 Y36.643
X33.566 Y36.849
X33.801 Y37.111
X33.977 Y37.416
X34.086 Y37.750
X34.123 Y38.100
X34.086 Y38.450
X33.977 Y38.784
X33.801 Y39.089
X33.566 Y39.351
X33.281 Y39.557
X32.960 Y39.700
X32.616 Y39.774
X32.264 Y39.774
G0 Z3.000
G0  X19.564 Y39.774
G0  Z3.000
G01 F400 Z0
G01 F400 Z-0.100
G01F400X19.220 Y39.700
X18.899 Y39.557
X18.614 Y39.351
X18.379 Y39.089
X18.203 Y38.784
X18.094 Y38.450
X18.057 Y38.100
X18.094 Y37.750
X18.203 Y37.416
X18.379 Y37.111
X18.614 Y36.849
X18.899 Y36.643
X19.220 Y36.500
X19.564 Y36.426
X19.916 Y36.426
X20.260 Y36.500
X20.581 Y36.643
X20.866 Y36.849
X21.101 Y37.111
X21.277 Y37.416
X21.386 Y37.750
X21.423 Y38.100
X21.386 Y38.450
X21.277 Y38.784
X21.101 Y39.089
X20.866 Y39.351
X20.581 Y39.557
X20.260 Y39.700
X19.916 Y39.774
X19.564 Y39.774
G0 Z3.000
G0  X10.564 Y39.774
G0  Z3.000
G01 F400 Z0
G01 F400 Z-0.100
G01F400X10.220 Y39.700
X9.899 Y39.557
X9.614 Y39.351
X9.379 Y39.089
X9.203 Y38.784
X9.094 Y38.450
X9.057 Y38.100
X9.094 Y37.750
X9.203 Y37.416
X9.379 Y37.111
X9.614 Y36.849
X9.899 Y36.643
X10.220 Y36.500
X10.564 Y36.426
X10.916 Y36.426
X11.260 Y36.500
X11.581 Y36.643
X11.866 Y36.849
X12.101 Y37.111
X12.277 Y37.416
X12.386 Y37.750
X12.423 Y38.100
X12.386 Y38.450
X12.277 Y38.784
X12.101 Y39.089
X11.866 Y39.351
X11.581 Y39.557
X11.260 Y39.700
X10.916 Y39.774
X10.564 Y39.774
G0 Z3.000
G0  X3.573 Y34.489
G0  Z3.000
G01 F400 Z0
G01 F400 Z-0.100
G01F400X3.271 Y34.425
X2.989 Y34.299
X2.739 Y34.118
X2.532 Y33.888
X2.378 Y33.621
X2.282 Y33.327
X2.250 Y33.020
X2.282 Y32.713
X2.378 Y32.419
X2.532 Y32.152
X2.739 Y31.922
X2.989 Y31.741
X3.271 Y31.615
X3.573 Y31.551
X6.587 Y31.551
X6.889 Y31.615
X7.171 Y31.741
X7.421 Y31.922
X7.628 Y32.152
X7.782 Y32.419
X7.871 Y32.694
X10.684 Y32.694
X11.875 Y31.502
X11.723 Y31.243
X11.920 Y30.482
X12.597 Y30.083
X13.358 Y30.280
X13.757 Y30.957
X13.560 Y31.718
X12.883 Y32.117
X12.329 Y31.974
X11.037 Y33.266
X10.984 Y33.304
X10.921 Y33.332
X10.854 Y33.346
X7.871 Y33.346
X7.782 Y33.621
X7.628 Y33.888
X7.421 Y34.118
X7.171 Y34.299
X6.889 Y34.425
X6.587 Y34.489
X3.573 Y34.489
G0 Z3.000
G0  X40.896 Y32.301
G0  Z3.000
G01 F400 Z0
G01 F400 Z-0.100
G01F400X39.533 Y31.949
X38.860 Y30.806
X32.986 Y30.806
X32.919 Y30.792
X32.856 Y30.764
X32.803 Y30.726
X27.714 Y25.637
X27.675 Y25.593
X27.640 Y25.533
X27.619 Y25.468
X27.613 Y25.407
X27.613 Y18.026
X27.322 Y17.950
X26.923 Y17.273
X27.120 Y16.512
X27.797 Y16.113
X28.558 Y16.310
X28.957 Y16.987
X28.760 Y17.748
X28.267 Y18.039
X28.267 Y25.265
X33.156 Y30.154
X38.970 Y30.154
X39.171 Y29.373
X40.384 Y28.659
X41.747 Y29.011
X42.461 Y30.224
X42.109 Y31.587
X40.896 Y32.301
G0 Z3.000
G0  X25.583 Y32.117
G0  Z3.000
G01 F400 Z0
G01 F400 Z-0.100
G01F400X24.822 Y31.920
X24.423 Y31.243
X24.620 Y30.482
X25.113 Y30.191
X25.113 Y24.226
X25.086 Y24.480
X24.977 Y24.814
X24.801 Y25.119
X24.566 Y25.381
X24.281 Y25.587
X23.960 Y25.730
X23.616 Y25.804
X23.264 Y25.804
X22.920 Y25.730
X22.599 Y25.587
X22.314 Y25.381
X22.079 Y25.119
X21.903 Y24.814
X21.794 Y24.480
X21.757 Y24.130
X21.794 Y23.780
X21.903 Y23.446
X22.079 Y23.141
X22.314 Y22.880
X22.599 Y22.673
X22.920 Y22.530
X23.264 Y22.456
X23.616 Y22.456
X23.960 Y22.530
X24.281 Y22.673
X24.566 Y22.880
X24.801 Y23.141
X24.977 Y23.446
X25.086 Y23.780
X25.113 Y24.034
X25.113 Y21.765
X21.364 Y18.016
X21.325 Y17.973
X21.290 Y17.913
X21.269 Y17.848
X21.263 Y17.787
X21.263 Y14.840
X20.988 Y14.769
X20.599 Y14.109
X20.791 Y13.368
X21.451 Y12.979
X22.192 Y13.171
X22.581 Y13.831
X22.389 Y14.572
X21.917 Y14.850
X21.917 Y17.645
X25.666 Y21.393
X25.705 Y21.437
X25.740 Y21.497
X25.761 Y21.562
X25.767 Y21.623
X25.767 Y30.204
X26.058 Y30.280
X26.457 Y30.957
X26.260 Y31.718
X25.583 Y32.117
G0 Z3.000
G0  X16.791 Y32.049
G0  Z3.000
G01 F400 Z0
G01 F400 Z-0.100
G01F400X16.791 Y30.151
X18.689 Y30.151
X18.689 Y32.049
X16.791 Y32.049
G0 Z3.000
G0  X3.573 Y29.790
G0  Z3.000
G01 F400 Z0
G01 F400 Z-0.100
G01F400X3.271 Y29.726
X2.989 Y29.600
X2.739 Y29.419
X2.532 Y29.189
X2.378 Y28.922
X2.282 Y28.628
X2.250 Y28.321
X2.282 Y28.014
X2.378 Y27.720
X2.532 Y27.453
X2.739 Y27.223
X2.989 Y27.042
X3.271 Y26.916
X3.573 Y26.852
X6.587 Y26.852
X6.889 Y26.916
X7.171 Y27.042
X7.421 Y27.223
X7.628 Y27.453
X7.782 Y27.720
X7.878 Y28.014
X7.910 Y28.321
X7.878 Y28.628
X7.782 Y28.922
X7.628 Y29.189
X7.421 Y29.419
X7.171 Y29.600
X6.889 Y29.726
X6.587 Y29.790
X3.573 Y29.790
G0 Z3.000
G0  X32.264 Y25.804
G0  Z3.000
G01 F400 Z0
G01 F400 Z-0.100
G01F400X31.920 Y25.730
X31.599 Y25.587
X31.314 Y25.381
X31.079 Y25.119
X30.903 Y24.814
X30.794 Y24.480
X30.757 Y24.130
X30.794 Y23.780
X30.903 Y23.446
X31.079 Y23.141
X31.314 Y22.880
X31.599 Y22.673
X31.920 Y22.530
X32.264 Y22.456
X32.616 Y22.456
X32.960 Y22.530
X33.281 Y22.673
X33.566 Y22.880
X33.801 Y23.141
X33.977 Y23.446
X34.086 Y23.780
X34.123 Y24.130
X34.086 Y24.480
X33.977 Y24.814
X33.801 Y25.119
X33.566 Y25.381
X33.281 Y25.587
X32.960 Y25.730
X32.616 Y25.804
X32.264 Y25.804
G0 Z3.000
G0  X7.759 Y23.851
G0  Z3.000
G01 F400 Z0
G01 F400 Z-0.100
G01F400X7.018 Y23.659
X6.629 Y22.999
X6.767 Y22.469
X2.924 Y18.626
X2.679 Y18.771
X1.938 Y18.579
X1.549 Y17.919
X1.741 Y17.178
X2.213 Y16.900
X2.213 Y7.614
X2.219 Y7.552
X2.240 Y7.487
X2.275 Y7.427
X2.314 Y7.384
X6.133 Y3.564
X6.186 Y3.526
X6.249 Y3.498
X6.316 Y3.484
X30.514 Y3.484
X30.581 Y3.498
X30.644 Y3.526
X30.697 Y3.564
X31.976 Y4.844
X32.015 Y4.887
X32.050 Y4.947
X32.071 Y5.012
X32.077 Y5.074
X32.077 Y5.624
X32.261 Y5.672
X32.591 Y6.232
X32.428 Y6.861
X31.868 Y7.191
X31.474 Y7.089
X30.697 Y7.866
X30.644 Y7.904
X30.581 Y7.932
X30.514 Y7.946
X28.666 Y7.946
X28.618 Y8.131
X28.058 Y8.461
X27.429 Y8.298
X27.099 Y7.738
X27.262 Y7.109
X27.822 Y6.779
X28.451 Y6.942
X28.658 Y7.294
X30.344 Y7.294
X31.006 Y6.632
X30.909 Y6.468
X31.072 Y5.839
X31.423 Y5.632
X31.423 Y5.215
X30.344 Y4.136
X6.486 Y4.136
X2.867 Y7.755
X2.867 Y16.910
X3.142 Y16.981
X3.531 Y17.641
X3.393 Y18.171
X7.236 Y22.014
X7.481 Y21.869
X8.222 Y22.061
X8.611 Y22.721
X8.419 Y23.462
X7.759 Y23.851
G0 Z3.000
G0  X35.781 Y22.679
G0  Z3.000
G01 F400 Z0
G01 F400 Z-0.100
G01F400X35.781 Y20.501
X36.543 Y20.501
X36.543 Y14.296
X36.286 Y14.296
X36.238 Y14.481
X35.678 Y14.811
X35.049 Y14.648
X34.719 Y14.088
X34.882 Y13.459
X35.442 Y13.129
X36.071 Y13.292
X36.278 Y13.644
X39.234 Y13.644
X41.583 Y11.295
X41.583 Y10.886
X41.399 Y10.838
X41.069 Y10.278
X41.232 Y9.649
X41.583 Y9.442
X41.583 Y7.076
X41.399 Y7.028
X41.069 Y6.468
X41.232 Y5.839
X41.792 Y5.509
X42.421 Y5.672
X42.751 Y6.232
X42.588 Y6.861
X42.237 Y7.068
X42.237 Y9.434
X42.421 Y9.482
X42.751 Y10.042
X42.588 Y10.671
X42.237 Y10.878
X42.237 Y11.437
X42.231 Y11.498
X42.210 Y11.563
X42.175 Y11.623
X42.136 Y11.667
X39.587 Y14.216
X39.534 Y14.254
X39.471 Y14.282
X39.404 Y14.296
X37.197 Y14.296
X37.197 Y20.501
X37.959 Y20.501
X37.959 Y22.679
X35.781 Y22.679
G0 Z3.000
G0  X7.759 Y18.771
G0  Z3.000
G01 F400 Z0
G01 F400 Z-0.100
G01F400X7.018 Y18.579
X6.629 Y17.919
X6.821 Y17.178
X7.293 Y16.900
X7.293 Y8.883
X7.299 Y8.822
X7.320 Y8.757
X7.355 Y8.697
X7.394 Y8.654
X9.416 Y6.632
X9.319 Y6.468
X9.482 Y5.839
X10.042 Y5.509
X10.436 Y5.611
X11.086 Y4.961
X11.139 Y4.923
X11.202 Y4.895
X11.269 Y4.881
X23.021 Y4.881
X23.088 Y4.895
X23.151 Y4.923
X23.204 Y4.961
X25.118 Y6.876
X25.282 Y6.779
X25.911 Y6.942
X26.241 Y7.502
X26.078 Y8.131
X25.727 Y8.338
X25.727 Y10.025
X28.076 Y12.374
X31.784 Y12.374
X31.851 Y12.388
X31.914 Y12.416
X31.967 Y12.454
X32.738 Y13.226
X32.902 Y13.129
X33.531 Y13.292
X33.861 Y13.852
X33.698 Y14.481
X33.138 Y14.811
X32.509 Y14.648
X32.179 Y14.088
X32.281 Y13.694
X31.614 Y13.026
X27.906 Y13.026
X27.839 Y13.012
X27.776 Y12.984
X27.723 Y12.946
X25.174 Y10.396
X25.135 Y10.353
X25.100 Y10.293
X25.079 Y10.228
X25.073 Y10.167
X25.073 Y8.346
X24.889 Y8.298
X24.559 Y7.738
X24.661 Y7.344
X22.851 Y5.533
X17.755 Y5.533
X18.291 Y5.672
X18.621 Y6.232
X18.458 Y6.861
X18.107 Y7.068
X18.107 Y7.485
X19.186 Y8.564
X20.720 Y8.564
X20.791 Y8.288
X21.451 Y7.899
X22.192 Y8.091
X22.581 Y8.751
X22.389 Y9.492
X21.809 Y9.834
X22.894 Y9.834
X22.961 Y9.848
X23.024 Y9.876
X23.077 Y9.914
X26.806 Y13.644
X30.514 Y13.644
X30.581 Y13.658
X30.644 Y13.686
X30.697 Y13.724
X32.738 Y15.766
X32.902 Y15.669
X33.531 Y15.832
X33.861 Y16.392
X33.698 Y17.021
X33.138 Y17.351
X32.509 Y17.188
X32.179 Y16.628
X32.281 Y16.234
X30.344 Y14.296
X26.636 Y14.296
X26.569 Y14.282
X26.506 Y14.254
X26.453 Y14.216
X22.724 Y10.486
X19.186 Y10.486
X18.107 Y11.565
X18.107 Y15.784
X18.291 Y15.832
X18.621 Y16.392
X18.458 Y17.021
X17.898 Y17.351
X17.269 Y17.188
X16.939 Y16.628
X17.102 Y15.999
X17.453 Y15.792
X17.453 Y11.424
X17.459 Y11.362
X17.480 Y11.297
X17.515 Y11.237
X17.554 Y11.194
X18.833 Y9.914
X18.886 Y9.876
X18.949 Y9.848
X19.016 Y9.834
X21.548 Y9.834
X20.988 Y9.689
X20.710 Y9.216
X19.016 Y9.216
X18.949 Y9.202
X18.886 Y9.174
X18.833 Y9.136
X17.554 Y7.856
X17.515 Y7.813
X17.480 Y7.753
X17.459 Y7.688
X17.453 Y7.627
X17.453 Y7.076
X17.269 Y7.028
X17.062 Y6.676
X14.696 Y6.676
X14.648 Y6.861
X14.088 Y7.191
X13.459 Y7.028
X13.129 Y6.468
X13.292 Y5.839
X13.811 Y5.533
X11.439 Y5.533
X10.904 Y6.068
X11.001 Y6.232
X10.838 Y6.861
X10.278 Y7.191
X9.884 Y7.089
X7.947 Y9.025
X7.947 Y16.910
X8.222 Y16.981
X8.611 Y17.641
X8.419 Y18.382
X7.759 Y18.771
G0 Z3.000
G0  X15.587 Y18.487
G0  Z3.000
G01 F400 Z0
G01 F400 Z-0.100
G01F400X15.520 Y18.473
X15.457 Y18.445
X15.404 Y18.407
X14.252 Y17.254
X14.088 Y17.351
X13.459 Y17.188
X13.252 Y16.836
X10.886 Y16.836
X10.838 Y17.021
X10.278 Y17.351
X9.649 Y17.188
X9.319 Y16.628
X9.482 Y15.999
X10.042 Y15.669
X10.671 Y15.832
X10.878 Y16.184
X13.244 Y16.184
X13.292 Y15.999
X13.852 Y15.669
X14.481 Y15.832
X14.811 Y16.392
X14.709 Y16.786
X15.757 Y17.835
X18.573 Y17.835
X19.358 Y17.050
X19.358 Y13.202
X19.364 Y13.140
X19.385 Y13.075
X19.420 Y13.015
X19.459 Y12.972
X20.738 Y11.692
X20.791 Y11.654
X20.854 Y11.626
X20.921 Y11.612
X22.894 Y11.612
X22.961 Y11.626
X23.024 Y11.654
X23.077 Y11.692
X25.666 Y14.282
X25.705 Y14.325
X25.740 Y14.385
X25.761 Y14.450
X25.767 Y14.511
X25.767 Y16.234
X26.058 Y16.310
X26.457 Y16.987
X26.260 Y17.748
X25.583 Y18.147
X24.822 Y17.950
X24.423 Y17.273
X24.620 Y16.512
X25.113 Y16.221
X25.113 Y14.653
X22.724 Y12.264
X21.091 Y12.264
X20.012 Y13.343
X20.012 Y17.191
X20.006 Y17.253
X19.985 Y17.318
X19.950 Y17.378
X19.911 Y17.421
X18.926 Y18.407
X18.873 Y18.445
X18.810 Y18.473
X18.743 Y18.487
X15.587 Y18.487
G0 Z3.000
G0  X29.491 Y18.079
G0  Z3.000
G01 F400 Z0
G01 F400 Z-0.100
G01F400X29.491 Y16.181
X31.389 Y16.181
X31.389 Y18.079
X29.491 Y18.079
G0 Z3.000
G0  X14.688 Y6.024
G0  Z3.000
G01 F400 Z0
G01 F400 Z-0.100
G01F400X17.054 Y6.024
X17.102 Y5.839
X17.621 Y5.533
X13.945 Y5.533
X14.481 Y5.672
X14.688 Y6.024
G0 Z3.000
G0  X9.188 Y44.085
G0  Z3.000
G01 F400 Z0
G01 F400 Z-0.100
G01F400X9.075 Y44.061
X8.970 Y44.014
X8.883 Y43.952
X7.935 Y43.003
X7.786 Y43.091
X6.903 Y42.862
X6.439 Y42.076
X6.668 Y41.193
X7.454 Y40.729
X8.338 Y40.958
X8.801 Y41.744
X8.684 Y42.196
X9.474 Y42.986
X36.592 Y42.986
X36.113 Y42.862
X35.875 Y42.460
X29.152 Y42.460
X29.039 Y42.436
X28.934 Y42.389
X28.848 Y42.326
X27.552 Y41.030
X27.493 Y40.965
X27.435 Y40.865
X27.399 Y40.755
X27.389 Y40.658
X27.389 Y33.570
X16.452 Y33.570
X16.339 Y33.546
X16.234 Y33.498
X16.148 Y33.436
X14.947 Y32.235
X14.476 Y32.114
X13.983 Y31.277
X14.227 Y30.336
X15.063 Y29.843
X16.004 Y30.087
X16.497 Y30.923
X16.254 Y31.864
X16.177 Y31.909
X16.739 Y32.470
X27.389 Y32.470
X27.389 Y32.169
X27.176 Y32.114
X26.683 Y31.277
X26.927 Y30.336
X27.763 Y29.843
X28.704 Y30.087
X29.197 Y30.923
X28.954 Y31.864
X28.491 Y32.136
X28.491 Y40.412
X29.439 Y41.360
X35.834 Y41.360
X35.878 Y41.193
X36.664 Y40.729
X37.547 Y40.958
X38.011 Y41.744
X37.782 Y42.628
X37.173 Y42.986
X41.326 Y42.986
X41.359 Y42.952
X41.359 Y42.905
X41.193 Y42.862
X40.729 Y42.076
X40.958 Y41.193
X41.359 Y40.956
X41.359 Y37.367
X40.930 Y37.620
X39.388 Y37.222
X38.580 Y35.850
X38.903 Y34.601
X36.601 Y32.300
X31.032 Y32.300
X30.918 Y32.275
X30.912 Y32.273
X29.268 Y32.273
X29.268 Y29.928
X31.613 Y29.928
X31.613 Y31.200
X36.888 Y31.200
X37.001 Y31.225
X37.106 Y31.272
X37.192 Y31.334
X39.726 Y33.867
X40.351 Y33.500
X41.892 Y33.898
X42.629 Y35.150
X42.629 Y30.467
X42.302 Y31.732
X40.930 Y32.540
X39.388 Y32.142
X38.733 Y31.030
X32.962 Y31.030
X32.849 Y31.006
X32.744 Y30.959
X32.658 Y30.896
X27.552 Y25.790
X27.493 Y25.725
X27.435 Y25.625
X27.399 Y25.515
X27.389 Y25.418
X27.389 Y18.199
X27.176 Y18.143
X26.683 Y17.307
X26.927 Y16.366
X27.763 Y15.873
X28.704 Y16.117
X29.197 Y16.953
X28.954 Y17.894
X28.491 Y18.166
X28.491 Y25.172
X33.249 Y29.930
X38.797 Y29.930
X38.978 Y29.228
X40.351 Y28.420
X41.892 Y28.818
X42.629 Y30.069
X42.628 Y23.126
X42.322 Y22.820
X42.276 Y22.840
X42.007 Y22.897
X41.733 Y22.897
X41.464 Y22.840
X41.213 Y22.729
X40.990 Y22.567
X40.806 Y22.363
X40.669 Y22.125
X40.584 Y21.863
X40.555 Y21.590
X40.584 Y21.317
X40.669 Y21.055
X40.806 Y20.817
X40.990 Y20.613
X41.213 Y20.451
X41.464 Y20.340
X41.733 Y20.283
X42.007 Y20.283
X42.276 Y20.340
X42.322 Y20.360
X42.629 Y20.053
X42.629 Y10.906
X42.461 Y11.005
X42.461 Y11.448
X42.451 Y11.545
X42.415 Y11.655
X42.357 Y11.755
X42.298 Y11.820
X39.732 Y14.386
X39.646 Y14.449
X39.541 Y14.495
X39.428 Y14.520
X37.421 Y14.520
X37.421 Y20.277
X38.183 Y20.277
X38.183 Y22.903
X35.557 Y22.903
X35.557 Y20.277
X36.319 Y20.277
X36.319 Y14.692
X35.712 Y15.050
X34.904 Y14.841
X34.480 Y14.122
X34.689 Y13.314
X35.408 Y12.890
X36.217 Y13.099
X36.406 Y13.420
X39.141 Y13.420
X41.359 Y11.202
X41.359 Y11.059
X41.254 Y11.031
X40.830 Y10.312
X41.039 Y9.504
X41.359 Y9.315
X41.359 Y7.249
X41.254 Y7.221
X40.830 Y6.502
X41.039 Y5.694
X41.758 Y5.270
X42.567 Y5.479
X42.629 Y5.585
X42.629 Y5.308
X41.681 Y4.360
X38.329 Y4.360
X32.775 Y9.914
X32.830 Y10.008
X32.621 Y10.817
X31.902 Y11.240
X31.094 Y11.031
X30.904 Y10.710
X28.839 Y10.710
X28.811 Y10.817
X28.092 Y11.240
X27.284 Y11.031
X26.860 Y10.312
X27.069 Y9.504
X27.788 Y9.080
X28.597 Y9.289
X28.786 Y9.610
X30.851 Y9.610
X30.879 Y9.504
X31.598 Y9.080
X31.959 Y9.173
X37.738 Y3.394
X37.824 Y3.332
X37.929 Y3.284
X38.042 Y3.260
X41.968 Y3.260
X42.081 Y3.284
X42.186 Y3.332
X42.272 Y3.394
X43.568 Y4.690
X43.627 Y4.755
X43.685 Y4.855
X43.721 Y4.965
X43.731 Y5.062
X43.731 Y20.298
X43.721 Y20.395
X43.685 Y20.505
X43.627 Y20.605
X43.568 Y20.670
X43.098 Y21.140
X43.156 Y21.317
X43.185 Y21.590
X43.156 Y21.863
X43.100 Y22.036
X43.442 Y22.375
X43.456 Y22.382
X43.550 Y22.449
X43.627 Y22.535
X43.685 Y22.635
X43.721 Y22.745
X43.731 Y22.842
X43.731 Y35.578
X43.721 Y35.675
X43.685 Y35.785
X43.627 Y35.885
X43.568 Y35.950
X42.461 Y37.058
X42.461 Y40.915
X42.628 Y40.958
X43.091 Y41.744
X42.862 Y42.628
X42.461 Y42.864
X42.461 Y43.198
X42.451 Y43.295
X42.415 Y43.405
X42.357 Y43.505
X42.298 Y43.570
X41.916 Y43.952
X41.831 Y44.014
X41.725 Y44.061
X41.612 Y44.085
X9.188 Y44.085
G0 Z3.000
G0  X2.706 Y43.091
G0  Z3.000
G01 F400 Z0
G01 F400 Z-0.100
G01F400X1.823 Y42.862
X1.359 Y42.076
X1.476 Y41.624
X0.882 Y41.030
X0.823 Y40.965
X0.765 Y40.865
X0.730 Y40.755
X0.719 Y40.658
X0.719 Y24.112
X0.730 Y24.015
X0.765 Y23.905
X0.823 Y23.805
X0.882 Y23.740
X1.413 Y23.208
X1.310 Y23.033
X1.548 Y22.113
X2.367 Y21.630
X3.288 Y21.868
X3.770 Y22.687
X3.532 Y23.608
X2.713 Y24.090
X2.216 Y23.962
X1.821 Y24.358
X1.821 Y40.413
X1.989 Y40.581
X1.989 Y40.241
X2.000 Y40.144
X2.035 Y40.034
X2.093 Y39.934
X2.152 Y39.869
X2.848 Y39.172
X2.589 Y38.984
X2.351 Y38.719
X2.173 Y38.411
X2.063 Y38.073
X2.026 Y37.719
X2.063 Y37.365
X2.173 Y37.027
X2.351 Y36.719
X2.589 Y36.454
X2.876 Y36.245
X3.202 Y36.100
X3.550 Y36.026
X6.610 Y36.026
X6.958 Y36.100
X7.284 Y36.245
X7.571 Y36.454
X7.809 Y36.719
X7.987 Y37.027
X8.097 Y37.365
X8.134 Y37.719
X8.097 Y38.073
X7.987 Y38.411
X7.809 Y38.719
X7.571 Y38.984
X7.284 Y39.193
X6.958 Y39.338
X6.610 Y39.412
X4.166 Y39.412
X3.091 Y40.487
X3.091 Y40.915
X3.258 Y40.958
X3.721 Y41.744
X3.492 Y42.628
X2.706 Y43.091
G0 Z3.000
G0  X10.541 Y39.997
G0  Z3.000
G01 F400 Z0
G01 F400 Z-0.100
G01F400X10.151 Y39.914
X9.786 Y39.752
X9.464 Y39.517
X9.197 Y39.221
X8.998 Y38.876
X8.874 Y38.497
X8.833 Y38.100
X8.874 Y37.703
X8.998 Y37.324
X9.197 Y36.979
X9.464 Y36.683
X9.786 Y36.448
X10.151 Y36.286
X10.541 Y36.203
X10.939 Y36.203
X11.329 Y36.286
X11.694 Y36.448
X12.016 Y36.683
X12.283 Y36.979
X12.482 Y37.324
X12.606 Y37.703
X12.647 Y38.100
X12.606 Y38.497
X12.482 Y38.876
X12.283 Y39.221
X12.016 Y39.517
X11.694 Y39.752
X11.329 Y39.914
X10.939 Y39.997
X10.541 Y39.997
G0 Z3.000
G0  X19.541 Y39.997
G0  Z3.000
G01 F400 Z0
G01 F400 Z-0.100
G01F400X19.151 Y39.914
X18.786 Y39.752
X18.464 Y39.517
X18.197 Y39.221
X17.998 Y38.876
X17.874 Y38.497
X17.833 Y38.100
X17.874 Y37.703
X17.998 Y37.324
X18.197 Y36.979
X18.464 Y36.683
X18.786 Y36.448
X19.151 Y36.286
X19.541 Y36.203
X19.939 Y36.203
X20.329 Y36.286
X20.694 Y36.448
X21.016 Y36.683
X21.283 Y36.979
X21.483 Y37.324
X21.590 Y37.655
X21.698 Y37.324
X21.897 Y36.979
X22.164 Y36.683
X22.486 Y36.448
X22.851 Y36.286
X23.241 Y36.203
X23.639 Y36.203
X24.029 Y36.286
X24.394 Y36.448
X24.716 Y36.683
X24.983 Y36.979
X25.183 Y37.324
X25.306 Y37.703
X25.347 Y38.100
X25.306 Y38.497
X25.183 Y38.876
X24.983 Y39.221
X24.716 Y39.517
X24.394 Y39.752
X24.029 Y39.914
X23.639 Y39.997
X23.241 Y39.997
X22.851 Y39.914
X22.486 Y39.752
X22.164 Y39.517
X21.897 Y39.221
X21.698 Y38.876
X21.590 Y38.545
X21.483 Y38.876
X21.283 Y39.221
X21.016 Y39.517
X20.694 Y39.752
X20.329 Y39.914
X19.939 Y39.997
X19.541 Y39.997
G0 Z3.000
G0  X32.241 Y39.997
G0  Z3.000
G01 F400 Z0
G01 F400 Z-0.100
G01F400X31.851 Y39.914
X31.486 Y39.752
X31.164 Y39.517
X30.897 Y39.221
X30.698 Y38.876
X30.574 Y38.497
X30.533 Y38.100
X30.574 Y37.703
X30.698 Y37.324
X30.897 Y36.979
X31.164 Y36.683
X31.486 Y36.448
X31.851 Y36.286
X32.241 Y36.203
X32.639 Y36.203
X33.029 Y36.286
X33.394 Y36.448
X33.716 Y36.683
X33.983 Y36.979
X34.183 Y37.324
X34.306 Y37.703
X34.347 Y38.100
X34.306 Y38.497
X34.183 Y38.876
X33.983 Y39.221
X33.716 Y39.517
X33.394 Y39.752
X33.029 Y39.914
X32.639 Y39.997
X32.241 Y39.997
G0 Z3.000
G0  X3.550 Y34.713
G0  Z3.000
G01 F400 Z0
G01 F400 Z-0.100
G01F400X3.202 Y34.639
X2.876 Y34.494
X2.589 Y34.285
X2.351 Y34.020
X2.173 Y33.712
X2.063 Y33.374
X2.026 Y33.020
X2.063 Y32.666
X2.173 Y32.328
X2.351 Y32.020
X2.589 Y31.755
X2.876 Y31.546
X3.202 Y31.401
X3.550 Y31.327
X6.610 Y31.327
X6.958 Y31.401
X7.284 Y31.546
X7.571 Y31.755
X7.809 Y32.020
X7.987 Y32.328
X8.034 Y32.470
X10.591 Y32.470
X11.595 Y31.467
X11.483 Y31.277
X11.726 Y30.336
X12.563 Y29.843
X13.504 Y30.087
X13.997 Y30.923
X13.754 Y31.864
X12.917 Y32.357
X12.396 Y32.222
X11.182 Y33.436
X11.096 Y33.498
X10.991 Y33.546
X10.878 Y33.570
X8.034 Y33.570
X7.987 Y33.712
X7.809 Y34.020
X7.571 Y34.285
X7.284 Y34.494
X6.958 Y34.639
X6.610 Y34.713
X3.550 Y34.713
G0 Z3.000
G0  X25.617 Y32.357
G0  Z3.000
G01 F400 Z0
G01 F400 Z-0.100
G01F400X24.676 Y32.114
X24.183 Y31.277
X24.427 Y30.336
X24.889 Y30.064
X24.889 Y25.355
X24.716 Y25.547
X24.394 Y25.782
X24.029 Y25.944
X23.639 Y26.027
X23.241 Y26.027
X22.851 Y25.944
X22.486 Y25.782
X22.164 Y25.547
X21.897 Y25.251
X21.698 Y24.906
X21.574 Y24.527
X21.533 Y24.130
X21.574 Y23.733
X21.698 Y23.354
X21.897 Y23.009
X22.164 Y22.713
X22.486 Y22.478
X22.851 Y22.316
X23.241 Y22.233
X23.639 Y22.233
X24.029 Y22.316
X24.394 Y22.478
X24.716 Y22.713
X24.889 Y22.905
X24.889 Y21.858
X21.202 Y18.170
X21.143 Y18.105
X21.085 Y18.005
X21.050 Y17.895
X21.039 Y17.798
X21.039 Y15.013
X20.843 Y14.962
X20.360 Y14.143
X20.598 Y13.223
X21.417 Y12.740
X22.338 Y12.978
X22.820 Y13.797
X22.582 Y14.718
X22.141 Y14.978
X22.141 Y17.552
X25.828 Y21.240
X25.887 Y21.305
X25.945 Y21.405
X25.981 Y21.515
X25.991 Y21.612
X25.991 Y30.031
X26.204 Y30.087
X26.697 Y30.923
X26.454 Y31.864
X25.617 Y32.357
G0 Z3.000
G0  X16.568 Y32.273
G0  Z3.000
G01 F400 Z0
G01 F400 Z-0.100
G01F400X16.568 Y29.928
X18.913 Y29.928
X18.913 Y32.273
X16.568 Y32.273
G0 Z3.000
G0  X3.550 Y30.014
G0  Z3.000
G01 F400 Z0
G01 F400 Z-0.100
G01F400X3.202 Y29.940
X2.876 Y29.795
X2.589 Y29.586
X2.351 Y29.321
X2.173 Y29.013
X2.063 Y28.675
X2.026 Y28.321
X2.063 Y27.967
X2.173 Y27.629
X2.351 Y27.321
X2.589 Y27.056
X2.876 Y26.847
X3.202 Y26.702
X3.550 Y26.628
X6.610 Y26.628
X6.958 Y26.702
X7.284 Y26.847
X7.571 Y27.056
X7.809 Y27.321
X7.987 Y27.629
X8.097 Y27.967
X8.134 Y28.321
X8.097 Y28.675
X7.987 Y29.013
X7.809 Y29.321
X7.571 Y29.586
X7.284 Y29.795
X6.958 Y29.940
X6.610 Y30.014
X3.550 Y30.014
G0 Z3.000
G0  X32.241 Y26.027
G0  Z3.000
G01 F400 Z0
G01 F400 Z-0.100
G01F400X31.851 Y25.944
X31.486 Y25.782
X31.164 Y25.547
X30.897 Y25.251
X30.698 Y24.906
X30.574 Y24.527
X30.533 Y24.130
X30.574 Y23.733
X30.698 Y23.354
X30.897 Y23.009
X31.164 Y22.713
X31.486 Y22.478
X31.851 Y22.316
X32.241 Y22.233
X32.639 Y22.233
X33.029 Y22.316
X33.394 Y22.478
X33.716 Y22.713
X33.983 Y23.009
X34.183 Y23.354
X34.306 Y23.733
X34.347 Y24.130
X34.306 Y24.527
X34.183 Y24.906
X33.983 Y25.251
X33.716 Y25.547
X33.394 Y25.782
X33.029 Y25.944
X32.639 Y26.027
X32.241 Y26.027
G0 Z3.000
G0  X7.793 Y24.090
G0  Z3.000
G01 F400 Z0
G01 F400 Z-0.100
G01F400X6.873 Y23.852
X6.390 Y23.033
X6.518 Y22.537
X2.888 Y18.907
X2.713 Y19.010
X1.792 Y18.772
X1.310 Y17.953
X1.548 Y17.033
X1.989 Y16.773
X1.989 Y7.602
X2.000 Y7.505
X2.035 Y7.395
X2.093 Y7.295
X2.152 Y7.230
X5.988 Y3.394
X6.074 Y3.332
X6.179 Y3.284
X6.292 Y3.260
X30.538 Y3.260
X30.651 Y3.284
X30.756 Y3.332
X30.842 Y3.394
X32.138 Y4.690
X32.197 Y4.755
X32.255 Y4.855
X32.291 Y4.965
X32.301 Y5.062
X32.301 Y5.451
X32.407 Y5.479
X32.830 Y6.198
X32.621 Y7.006
X31.902 Y7.430
X31.541 Y7.337
X30.842 Y8.036
X30.756 Y8.098
X30.651 Y8.146
X30.538 Y8.170
X28.839 Y8.170
X28.811 Y8.277
X28.092 Y8.700
X27.284 Y8.491
X26.860 Y7.772
X27.069 Y6.964
X27.788 Y6.540
X28.597 Y6.749
X28.786 Y7.070
X30.251 Y7.070
X30.725 Y6.596
X30.670 Y6.502
X30.879 Y5.694
X31.199 Y5.505
X31.199 Y5.308
X30.251 Y4.360
X6.579 Y4.360
X3.091 Y7.848
X3.091 Y16.737
X3.288 Y16.788
X3.770 Y17.607
X3.642 Y18.103
X7.272 Y21.733
X7.447 Y21.630
X8.367 Y21.868
X8.850 Y22.687
X8.612 Y23.608
X7.793 Y24.090
G0 Z3.000
G0  X7.793 Y19.010
G0  Z3.000
G01 F400 Z0
G01 F400 Z-0.100
G01F400X6.873 Y18.772
X6.390 Y17.953
X6.628 Y17.033
X7.069 Y16.773
X7.069 Y8.872
X7.080 Y8.775
X7.115 Y8.665
X7.173 Y8.565
X7.232 Y8.500
X9.135 Y6.596
X9.080 Y6.502
X9.289 Y5.694
X10.008 Y5.270
X10.369 Y5.363
X10.941 Y4.791
X11.027 Y4.729
X11.132 Y4.682
X11.245 Y4.657
X23.045 Y4.657
X23.158 Y4.682
X23.263 Y4.729
X23.349 Y4.791
X25.154 Y6.595
X25.248 Y6.540
X26.056 Y6.749
X26.480 Y7.468
X26.271 Y8.277
X25.951 Y8.465
X25.951 Y9.932
X28.169 Y12.150
X31.808 Y12.150
X31.921 Y12.175
X32.026 Y12.222
X32.112 Y12.284
X32.774 Y12.945
X32.868 Y12.890
X33.677 Y13.099
X34.100 Y13.818
X33.891 Y14.627
X33.172 Y15.050
X32.364 Y14.841
X31.940 Y14.122
X32.033 Y13.761
X31.521 Y13.250
X27.882 Y13.250
X27.769 Y13.226
X27.664 Y13.179
X27.578 Y13.116
X25.012 Y10.550
X24.953 Y10.485
X24.895 Y10.385
X24.860 Y10.275
X24.849 Y10.178
X24.849 Y8.519
X24.744 Y8.491
X24.320 Y7.772
X24.413 Y7.411
X22.758 Y5.757
X18.600 Y5.757
X18.860 Y6.198
X18.651 Y7.006
X18.331 Y7.195
X18.331 Y7.392
X19.279 Y8.340
X20.547 Y8.340
X20.598 Y8.143
X21.417 Y7.660
X22.338 Y7.898
X22.820 Y8.717
X22.589 Y9.610
X22.918 Y9.610
X23.031 Y9.635
X23.136 Y9.681
X23.222 Y9.744
X26.899 Y13.420
X30.538 Y13.420
X30.651 Y13.445
X30.756 Y13.492
X30.842 Y13.554
X32.774 Y15.485
X32.868 Y15.430
X33.677 Y15.639
X34.100 Y16.358
X33.891 Y17.166
X33.172 Y17.590
X32.364 Y17.381
X31.940 Y16.662
X32.033 Y16.301
X30.251 Y14.520
X26.612 Y14.520
X26.499 Y14.495
X26.394 Y14.449
X26.308 Y14.386
X22.631 Y10.710
X19.279 Y10.710
X18.331 Y11.658
X18.331 Y15.611
X18.437 Y15.639
X18.860 Y16.358
X18.651 Y17.166
X17.932 Y17.590
X17.123 Y17.381
X16.700 Y16.662
X16.909 Y15.854
X17.229 Y15.665
X17.229 Y11.412
X17.239 Y11.315
X17.275 Y11.205
X17.333 Y11.105
X17.392 Y11.040
X18.688 Y9.744
X18.774 Y9.681
X18.879 Y9.635
X18.992 Y9.610
X20.683 Y9.610
X20.582 Y9.440
X18.992 Y9.440
X18.879 Y9.415
X18.774 Y9.369
X18.688 Y9.306
X17.392 Y8.010
X17.333 Y7.945
X17.275 Y7.845
X17.239 Y7.735
X17.229 Y7.638
X17.229 Y7.249
X17.123 Y7.221
X16.934 Y6.900
X14.869 Y6.900
X14.841 Y7.006
X14.122 Y7.430
X13.314 Y7.221
X12.890 Y6.502
X13.083 Y5.757
X11.532 Y5.757
X11.185 Y6.104
X11.240 Y6.198
X11.031 Y7.006
X10.312 Y7.430
X9.951 Y7.337
X8.171 Y9.118
X8.171 Y16.737
X8.367 Y16.788
X8.850 Y17.607
X8.612 Y18.527
X7.793 Y19.010
G0 Z3.000
G0  X15.563 Y18.711
G0  Z3.000
G01 F400 Z0
G01 F400 Z-0.100
G01F400X15.450 Y18.687
X15.345 Y18.640
X15.259 Y18.577
X14.216 Y17.535
X14.122 Y17.590
X13.314 Y17.381
X13.124 Y17.060
X11.059 Y17.060
X11.031 Y17.166
X10.312 Y17.590
X9.504 Y17.381
X9.080 Y16.662
X9.289 Y15.854
X10.008 Y15.430
X10.817 Y15.639
X11.006 Y15.960
X13.071 Y15.960
X13.099 Y15.854
X13.818 Y15.430
X14.627 Y15.639
X15.050 Y16.358
X14.957 Y16.719
X15.850 Y17.611
X18.480 Y17.611
X19.134 Y16.957
X19.134 Y13.190
X19.145 Y13.093
X19.180 Y12.983
X19.238 Y12.883
X19.297 Y12.818
X20.593 Y11.522
X20.679 Y11.460
X20.784 Y11.413
X20.897 Y11.388
X22.918 Y11.388
X23.031 Y11.413
X23.136 Y11.460
X23.222 Y11.522
X25.828 Y14.128
X25.887 Y14.193
X25.945 Y14.293
X25.981 Y14.403
X25.991 Y14.500
X25.991 Y16.061
X26.204 Y16.117
X26.697 Y16.953
X26.454 Y17.894
X25.617 Y18.387
X24.676 Y18.143
X24.183 Y17.307
X24.427 Y16.366
X24.889 Y16.094
X24.889 Y14.745
X22.631 Y12.488
X21.184 Y12.488
X20.236 Y13.436
X20.236 Y17.203
X20.226 Y17.300
X20.190 Y17.410
X20.132 Y17.510
X20.073 Y17.575
X19.071 Y18.577
X18.985 Y18.640
X18.880 Y18.687
X18.767 Y18.711
X15.563 Y18.711
G0 Z3.000
G0  X29.268 Y18.303
G0  Z3.000
G01 F400 Z0
G01 F400 Z-0.100
G01F400X29.268 Y15.958
X31.613 Y15.958
X31.613 Y18.303
X29.268 Y18.303
G0 Z3.000
G0  X42.629 Y9.395
G0  Z3.000
G01 F400 Z0
G01 F400 Z-0.100
G01F400X42.629 Y7.096
X42.461 Y7.195
X42.461 Y9.261
X42.567 Y9.289
X42.629 Y9.395
G0 Z3.000
G0  X14.816 Y5.800
G0  Z3.000
G01 F400 Z0
G01 F400 Z-0.100
G01F400X16.881 Y5.800
X16.893 Y5.757
X14.790 Y5.757
X14.816 Y5.800
G0 Z3.000
M05
(  )
T608 M06
( Drilling )
M03 S10000
G00 X10.160 Y6.350
G0  Z3.000
G01 F320.0 Z-1.780
G00 Z3.000
G00 X10.160 Y16.510
G0  Z3.000
G01 F320.0 Z-1.780
G00 Z3.000
G00 X17.780 Y16.510
G0  Z3.000
G01 F320.0 Z-1.780
G00 Z3.000
G00 X13.970 Y6.350
G0  Z3.000
G01 F320.0 Z-1.780
G00 Z3.000
G00 X31.750 Y10.160
G0  Z3.000
G01 F320.0 Z-1.780
G00 Z3.000
G00 X41.910 Y10.160
G0  Z3.000
G01 F320.0 Z-1.780
G00 Z3.000
G00 X31.750 Y6.350
G0  Z3.000
G01 F320.0 Z-1.780
G00 Z3.000
G00 X41.910 Y6.350
G0  Z3.000
G01 F320.0 Z-1.780
G00 Z3.000
G00 X35.560 Y13.970
G0  Z3.000
G01 F320.0 Z-1.780
G00 Z3.000
G00 X33.020 Y13.970
G0  Z3.000
G01 F320.0 Z-1.780
G00 Z3.000
G00 X33.020 Y16.510
G0  Z3.000
G01 F320.0 Z-1.780
G00 Z3.000
G00 X27.940 Y10.160
G0  Z3.000
G01 F320.0 Z-1.780
G00 Z3.000
G00 X27.940 Y7.620
G0  Z3.000
G01 F320.0 Z-1.780
G00 Z3.000
G00 X25.400 Y7.620
G0  Z3.000
G01 F320.0 Z-1.780
G00 Z3.000
G00 X13.970 Y16.510
G0  Z3.000
G01 F320.0 Z-1.780
G00 Z3.000
G00 X21.590 Y13.970
G0  Z3.000
G01 F320.0 Z-1.780
G00 Z3.000
G00 X21.590 Y8.890
G0  Z3.000
G01 F320.0 Z-1.780
G00 Z3.000
G00 X7.620 Y17.780
G0  Z3.000
G01 F320.0 Z-1.780
G00 Z3.000
G00 X2.540 Y17.780
G0  Z3.000
G01 F320.0 Z-1.780
G00 Z3.000
G00 X7.620 Y22.860
G0  Z3.000
G01 F320.0 Z-1.780
G00 Z3.000
G00 X2.540 Y22.860
G0  Z3.000
G01 F320.0 Z-1.780
G00 Z3.000
G00 X17.780 Y6.350
G0  Z3.000
G01 F320.0 Z-1.780
G00 Z3.000
G00 X36.870 Y21.590
G0  Z3.000
G01 F320.0 Z-1.780
G00 Z3.000
G00 X41.870 Y21.590
G0  Z3.000
G01 F320.0 Z-1.780
G00 Z3.000
G00 X2.540 Y41.910
G0  Z3.000
G01 F320.0 Z-1.780
G00 Z3.000
G00 X41.910 Y41.910
G0  Z3.000
G01 F320.0 Z-1.780
G00 Z3.000
G00 X36.830 Y41.910
G0  Z3.000
G01 F320.0 Z-1.780
G00 Z3.000
G00 X7.620 Y41.910
G0  Z3.000
G01 F320.0 Z-1.780
G00 Z3.000
G00 X25.440 Y17.130
G0  Z3.000
G01 F320.0 Z-1.780
G00 Z3.000
G00 X27.940 Y17.130
G0  Z3.000
G01 F320.0 Z-1.780
G00 Z3.000
G00 X30.440 Y17.130
G0  Z3.000
G01 F320.0 Z-1.780
G00 Z3.000
G00 X12.740 Y31.100
G0  Z3.000
G01 F320.0 Z-1.780
G00 Z3.000
G00 X15.240 Y31.100
G0  Z3.000
G01 F320.0 Z-1.780
G00 Z3.000
G00 X30.440 Y31.100
G0  Z3.000
G01 F320.0 Z-1.780
G00 Z3.000
G00 X27.940 Y31.100
G0  Z3.000
G01 F320.0 Z-1.780
G00 Z3.000
G00 X25.440 Y31.100
G0  Z3.000
G01 F320.0 Z-1.780
G00 Z3.000
G00 X17.740 Y31.100
G0  Z3.000
G01 F320.0 Z-1.780
G00 Z3.000
G00 X40.640 Y35.560
G0  Z3.000
G01 F320.0 Z-1.780
G00 Z3.000
G00 X40.640 Y30.480
G0  Z3.000
G01 F320.0 Z-1.780
G00 Z3.000
G00 X5.080 Y37.719
G0  Z3.000
G01 F320.0 Z-1.780
G00 Z3.000
G00 X5.080 Y33.020
G0  Z3.000
G01 F320.0 Z-1.780
G00 Z3.000
G00 X5.080 Y28.321
G0  Z3.000
G01 F320.0 Z-1.780
G00 Z3.000
G00 X32.440 Y24.130
G0  Z3.000
G01 F320.0 Z-1.780
G00 Z3.000
G00 X23.440 Y24.130
G0  Z3.000
G01 F320.0 Z-1.780
G00 Z3.000
G00 X19.740 Y38.100
G0  Z3.000
G01 F320.0 Z-1.780
G00 Z3.000
G00 X10.740 Y38.100
G0  Z3.000
G01 F320.0 Z-1.780
G00 Z3.000
G00 X23.440 Y38.100
G0  Z3.000
G01 F320.0 Z-1.780
G00 Z3.000
G00 X32.440 Y38.100
G0  Z3.000
G01 F320.0 Z-1.780
G00 Z3.000
M05
(  )
T112 M06
( Routing )
M03 S10000
G0  X-0.793 Y45.794
G0  Z3.000
G01 F200 Z0
G01 F200 Z-0.790
G01F200X-0.793 Y-0.793
X45.794 Y-0.793
X45.794 Y45.794
X-0.793 Y45.794
G0 Z3.000
M03 S10000
G0  X-0.793 Y45.794
G0  Z3.000
G01 F200 Z0
G01 F200 Z-1.580
G01F200X-0.793 Y-0.793
X45.794 Y-0.793
X45.794 Y45.794
X-0.793 Y45.794
G0 Z3.000
G00 Z3.000
M05
M30
%